resources/haticons/SVG/approval.svg

<!-- Generated by IcoMoon.io -->
<svg version="1.1" xmlns="http://www.w3.org/2000/svg" width="24" height="24" viewBox="0 0 24 24">
<title>approval</title>
<path d="M12 11.016l3-4.031q0-1.219-0.891-2.109t-2.109-0.891-2.109 0.891-0.891 2.109zM12 2.016q2.063 0 3.539 1.453t1.477 3.516l-5.016 7.031h6q0.797 0 1.406 0.586t0.609 1.383v6h-16.031v-6q0-0.797 0.609-1.383t1.406-0.586h6l-5.016-7.031q0-2.063 1.477-3.516t3.539-1.453zM18 18v-2.016h-12v2.016h12z"></path>
</svg>

<svg xmlns="http://www.w3.org/2000/svg" width="24" height="24"><path d="M12 11.016l3-4.031q0-1.219-.891-2.109T12 3.985t-2.109.891T9 6.985zm0-9q2.063 0 3.539 1.453t1.477 3.516L12 14.016h6q.797 0 1.406.586t.609 1.383v6H3.984v-6q0-.797.609-1.383t1.406-.586h6L6.983 6.985q0-2.063 1.477-3.516t3.539-1.453zM18 18v-2.016H6V18h12z"/></svg>
